svg/color/eos_box.svg

<?xml version="1.0" standalone="yes"?>
<svg xmlns="http://www.w3.org/2000/svg" width="50" height="50">
<path style="fill:#fcfcf7; stroke:none;" d="M0 0L0 50L50 50L50 0L0 0z"/>
<path style="fill:#f0cca9; stroke:none;" d="M21 7L21 8L29 8C26.2271 5.25626 24.4952 5.42292 21 7z"/>
<path style="fill:#b77034; stroke:none;" d="M7 18L7 20C16.1519 25.2161 16.2706 19.0201 25 19.0201C33.7747 19.0201 35.2822 26.3071 44 19L25 7.02006L7 18z"/>
<path style="fill:#e19c60; stroke:none;" d="M26 6L27 7L26 6M22 7L23 8L22 7M27 7L28 8L27 7z"/>
<path style="fill:#f0cca9; stroke:none;" d="M19 8L18 10L19 8z"/>
<path style="fill:#e19c60; stroke:none;" d="M20 8L21 9L20 8M29 8L31 10L29 8z"/>
<path style="fill:#f0cca9; stroke:none;" d="M30 8L31 9L30 8z"/>
<path style="fill:#e19c60; stroke:none;" d="M19 9L20 10L19 9z"/>
<path style="fill:#f0cca9; stroke:none;" d="M31 9L32 10L31 9M16 10L14 13L16 10z"/>
<path style="fill:#e19c60; stroke:none;" d="M17 10L18 11L17 10z"/>
<path style="fill:#f0cca9; stroke:none;" d="M32 10L32 11L35 12L32 10z"/>
<path style="fill:#e19c60; stroke:none;" d="M16 11L17 12L16 11M33 11L34 12L33 11M15 12L16 13L15 12M35 12L38 15L35 12z"/>
<path style="fill:#f0cca9; stroke:none;" d="M36 12L37 13L36 12M12 13L11 15L12 13z"/>
<path style="fill:#e19c60; stroke:none;" d="M13 13L14 14L13 13z"/>
<path style="fill:#f0cca9; stroke:none;" d="M37 13L38 14L37 13z"/>
<path style="fill:#e19c60; stroke:none;" d="M12 14L13 15L12 14z"/>
<path style="fill:#f0cca9; stroke:none;" d="M38.6667 14.3333L39.3333 14.6667L38.6667 14.3333M9 15L8 17L9 15z"/>
<path style="fill:#e19c60; stroke:none;" d="M10 15L11 16L10 15M39 15L40 16L39 15M9 16L10 17L9 16M40 16L40 17L44 19L44 18L40 16z"/>
<path style="fill:#f0cca9; stroke:none;" d="M41 16L42 17L41 16M6.66667 17.3333L7.33333 17.6667L6.66667 17.3333M43 17L44 18L43 17z"/>
<path style="fill:#e19c60; stroke:none;" d="M6 18C6 21.8506 4.82586 28.0496 7.02778 31.402C19.6064 50.5531 44 40.4071 44 20L42 27L39 30L38 30L40 23L35 24C27.9479 32.6621 23.5835 30.8839 15 26L15 25L18 22L11 25L12 28L11 24L11 23L6 18M23 18L22 20L23 18z"/>
<path style="fill:#f0cca9; stroke:none;" d="M23 19L23 20L27 20L23 19z"/>
<path style="fill:#e19c60; stroke:none;" d="M26 18L27 19L26 18z"/>
<path style="fill:#f0cca9; stroke:none;" d="M44 18L44 32L45 32L44 18M5 19L6 20L5 19z"/>
<path style="fill:#fcfcf7; stroke:none;" d="M17 24C17.8932 25.7468 18.5371 26.9831 20.1489 28.2199C32.2674 37.5186 34.8337 14.6879 22.0247 20.6713C20.2336 21.508 18.6033 22.8672 17 24z"/>
<path style="fill:#e19c60; stroke:none;" d="M27 19L28 20L27 19z"/>
<path style="fill:#e98c3e; stroke:none;" d="M8 20L9 21L8 20z"/>
<path style="fill:#e19c60; stroke:none;" d="M20 20L19 22L20 20z"/>
<path style="fill:#f0cca9; stroke:none;" d="M21 20L22 21L21 20M28 20L30 22L28 20z"/>
<path style="fill:#e19c60; stroke:none;" d="M29 20L30 21L29 20z"/>
<path style="fill:#e98c3e; stroke:none;" d="M41 20L42 21L41 20z"/>
<path style="fill:#f0cca9; stroke:none;" d="M5 21L5 32L6 32L5 21z"/>
<path style="fill:#e98c3e; stroke:none;" d="M9 21L11 23L11 24C8.25798 25.5721 9.15906 27.3912 12 28L14 25L14 24L9 21z"/>
<path style="fill:#f0cca9; stroke:none;" d="M20 21L21 22L20 21z"/>
<path style="fill:#e19c60; stroke:none;" d="M30 21L31 22L30 21z"/>
<path style="fill:#f0cca9; stroke:none;" d="M18.6667 22.3333L19.3333 22.6667L18.6667 22.3333M31 22L32 27L35 26L35 24L31 22z"/>
<path style="fill:#e19c60; stroke:none;" d="M32 22L33 23L32 22z"/>
<path style="fill:#e98c3e; stroke:none;" d="M39 22L38 30L39 30L42 27L39 22M8 23L9 24L8 23z"/>
<path style="fill:#f0cca9; stroke:none;" d="M17 23L18 24L17 23z"/>
<path style="fill:#e19c60; stroke:none;" d="M33 23L34 24L33 23z"/>
<path style="fill:#e98c3e; stroke:none;" d="M37.6667 23.3333L38.3333 23.6667L37.6667 23.3333z"/>
<path style="fill:#f0cca9; stroke:none;" d="M16 24L19 28L16 24z"/>
<path style="fill:#e98c3e; stroke:none;" d="M36 24L37 25L36 24M13 27L14 28L13 27z"/>
<path style="fill:#f0cca9; stroke:none;" d="M31 27L32 28L31 27M19 28L27 32L27 31L19 28M28 30L31 28L28 30z"/>
<path style="fill:#e98c3e; stroke:none;" d="M33.6667 28.3333L34.3333 28.6667L33.6667 28.3333M11 30L12 31L11 30z"/>
<path style="fill:#f0cca9; stroke:none;" d="M27 30L28 31L27 30z"/>
<path style="fill:#e98c3e; stroke:none;" d="M13 32L13 33L18 33L13 32M32 35L36 34L36 31L32 35z"/>
<path style="fill:#f0cca9; stroke:none;" d="M7 32L8 33L7 32z"/>
<path style="fill:#e19c60; stroke:none;" d="M15 32L16 33L15 32z"/>
<path style="fill:#e98c3e; stroke:none;" d="M19 32L18 35L19 32z"/>
<path style="fill:#f0cca9; stroke:none;" d="M42 32L43 33L42 32M8 33L11 35L8 33M39 35L42 33L39 35M11 35L12 36L11 35z"/>
<path style="fill:#e98c3e; stroke:none;" d="M23 35L24 36L23 35z"/>
<path style="fill:#f0cca9; stroke:none;" d="M38 35L39 36L38 35M12.6667 36.3333L13.3333 36.6667L12.6667 36.3333M35 38L38 36L35 38M14 37L15 38L14 37z"/>
<path style="fill:#e98c3e; stroke:none;" d="M22 40L27 37L22 40z"/>
<path style="fill:#f0cca9; stroke:none;" d="M15.6667 38.3333L16.3333 38.6667L15.6667 38.3333M32 40L35 38L32 40M17 39L18 40L17 39M18 40L21 42L18 40M28 43L32 40L28 43M21 42L22 43L21 42M22.6667 43.3333L23.3333 43.6667L22.6667 43.3333M24 44L24 45L28 44L24 44z"/>
</svg>

<svg xmlns="http://www.w3.org/2000/svg" width="50" height="50"><path d="M0 0v50h50V0H0z" fill="#fcfcf7"/><path d="M21 7v1h8c-2.773-2.744-4.505-2.577-8-1z" fill="#f0cca9"/><path d="M7 18v2c9.152 5.216 9.27-.98 18-.98 8.775 0 10.282 7.287 19-.02L25 7.02 7 18z" fill="#b77034"/><path d="M26 6l1 1-1-1m-4 1l1 1-1-1m5 0l1 1-1-1z" fill="#e19c60"/><path d="M19 8l-1 2 1-2z" fill="#f0cca9"/><path d="M20 8l1 1-1-1m9 0l2 2-2-2z" fill="#e19c60"/><path d="M30 8l1 1-1-1z" fill="#f0cca9"/><path d="M19 9l1 1-1-1z" fill="#e19c60"/><path d="M31 9l1 1-1-1m-15 1l-2 3 2-3z" fill="#f0cca9"/><path d="M17 10l1 1-1-1z" fill="#e19c60"/><path d="M32 10v1l3 1-3-2z" fill="#f0cca9"/><path d="M16 11l1 1-1-1m17 0l1 1-1-1m-18 1l1 1-1-1m20 0l3 3-3-3z" fill="#e19c60"/><path d="M36 12l1 1-1-1m-24 1l-1 2 1-2z" fill="#f0cca9"/><path d="M13 13l1 1-1-1z" fill="#e19c60"/><path d="M37 13l1 1-1-1z" fill="#f0cca9"/><path d="M12 14l1 1-1-1z" fill="#e19c60"/><path d="M38.667 14.333l.666.334-.666-.334M9 15l-1 2 1-2z" fill="#f0cca9"/><path d="M10 15l1 1-1-1m29 0l1 1-1-1M9 16l1 1-1-1m31 0v1l4 2v-1l-4-2z" fill="#e19c60"/><path d="M41 16l1 1-1-1M6.667 17.333l.666.334-.666-.334M43 17l1 1-1-1z" fill="#f0cca9"/><path d="M6 18c0 3.85-1.174 10.05 1.028 13.402C19.606 50.553 44 40.407 44 20l-2 7-3 3h-1l2-7-5 1c-7.052 8.662-11.416 6.884-20 2v-1l3-3-7 3 1 3-1-4v-1l-5-5m17 0l-1 2 1-2z" fill="#e19c60"/><path d="M23 19v1h4l-4-1z" fill="#f0cca9"/><path d="M26 18l1 1-1-1z" fill="#e19c60"/><path d="M44 18v14h1l-1-14M5 19l1 1-1-1z" fill="#f0cca9"/><path d="M17 24c.893 1.747 1.537 2.983 3.149 4.22 12.118 9.299 14.685-13.532 1.876-7.549-1.791.837-3.422 2.196-5.025 3.329z" fill="#fcfcf7"/><path d="M27 19l1 1-1-1z" fill="#e19c60"/><path d="M8 20l1 1-1-1z" fill="#e98c3e"/><path d="M20 20l-1 2 1-2z" fill="#e19c60"/><path d="M21 20l1 1-1-1m7 0l2 2-2-2z" fill="#f0cca9"/><path d="M29 20l1 1-1-1z" fill="#e19c60"/><path d="M41 20l1 1-1-1z" fill="#e98c3e"/><path d="M5 21v11h1L5 21z" fill="#f0cca9"/><path d="M9 21l2 2v1c-2.742 1.572-1.84 3.391 1 4l2-3v-1l-5-3z" fill="#e98c3e"/><path d="M20 21l1 1-1-1z" fill="#f0cca9"/><path d="M30 21l1 1-1-1z" fill="#e19c60"/><path d="M18.667 22.333l.666.334-.666-.334M31 22l1 5 3-1v-2l-4-2z" fill="#f0cca9"/><path d="M32 22l1 1-1-1z" fill="#e19c60"/><path d="M39 22l-1 8h1l3-3-3-5M8 23l1 1-1-1z" fill="#e98c3e"/><path d="M17 23l1 1-1-1z" fill="#f0cca9"/><path d="M33 23l1 1-1-1z" fill="#e19c60"/><path d="M37.667 23.333l.666.334-.666-.334z" fill="#e98c3e"/><path d="M16 24l3 4-3-4z" fill="#f0cca9"/><path d="M36 24l1 1-1-1m-23 3l1 1-1-1z" fill="#e98c3e"/><path d="M31 27l1 1-1-1m-12 1l8 4v-1l-8-3m9 2l3-2-3 2z" fill="#f0cca9"/><path d="M33.667 28.333l.666.334-.666-.334M11 30l1 1-1-1z" fill="#e98c3e"/><path d="M27 30l1 1-1-1z" fill="#f0cca9"/><path d="M13 32v1h5l-5-1m19 3l4-1v-3l-4 4z" fill="#e98c3e"/><path d="M7 32l1 1-1-1z" fill="#f0cca9"/><path d="M15 32l1 1-1-1z" fill="#e19c60"/><path d="M19 32l-1 3 1-3z" fill="#e98c3e"/><path d="M42 32l1 1-1-1M8 33l3 2-3-2m31 2l3-2-3 2m-28 0l1 1-1-1z" fill="#f0cca9"/><path d="M23 35l1 1-1-1z" fill="#e98c3e"/><path d="M38 35l1 1-1-1m-25.333 1.333l.666.334-.666-.334M35 38l3-2-3 2m-21-1l1 1-1-1z" fill="#f0cca9"/><path d="M22 40l5-3-5 3z" fill="#e98c3e"/><path d="M15.667 38.333l.666.334-.666-.334M32 40l3-2-3 2m-15-1l1 1-1-1m1 1l3 2-3-2m10 3l4-3-4 3m-7-1l1 1-1-1m1.667 1.333l.666.334-.666-.334M24 44v1l4-1h-4z" fill="#f0cca9"/></svg>
